icons/op-wiki-edit-24.svg

<svg width="24" height="24" viewBox="0 0 24 24" fill="none" xmlns="http://www.w3.org/2000/svg">
<path d="M12 7.98667C12 5.49778 6.4375 5 4 5V15.9511H4.5C4.6875 15.9511 4.84375 15.9822 5 15.9822V16.9467C7 16.9467 11 16.3556 11 17.9422H13V7.98667C13 7.33333 14.0625 6.05778 19 5.99556V11.9378H20V5C17.5625 5 12 5.49778 12 7.98667ZM11 14.9556V15.4222C9.53125 14.5511 6.8125 14.4889 5 14.4578V5.99556C5.5 6.02667 5.9375 6.02667 6.375 6.05778C6.4375 6.05778 6.53125 6.08889 6.625 6.08889H6.71875C8.6875 6.21333 10.75 6.64889 10.9688 7.8C11 7.89333 11 7.95556 11 7.98667V14.9556ZM14.2188 17.0711L14.0625 18.0356L13.9375 19L14.9062 18.8756L15.9062 18.72L15.0625 17.88L14.2188 17.0711ZM18.9688 15.6711L18.6875 15.3911L16.1562 17.88L15.9062 17.6L18.4062 15.1111L17.8438 14.5511L15.3438 17.04L15.0625 16.76L17.5625 14.2711L17.2812 13.9911L14.5 16.76L16.1562 18.44L18.9688 15.6711ZM18.7188 13.1822C18.5625 13.0267 18.3125 13.0267 18.1562 13.1511V13.2133L18.125 13.1822L17.5938 13.7422L19.2812 15.3911L19.8125 14.8622C19.8125 14.8311 19.8438 14.8311 19.8438 14.8311C20 14.6756 20 14.4267 19.8438 14.2711L18.7188 13.1822Z" fill="black"/>
</svg>

<svg xmlns="http://www.w3.org/2000/svg" width="24" height="24" viewBox="0 0 24 24"><path d="M12 7.987C12 5.498 6.438 5 4 5v10.951h.5c.188 0 .344.031.5.031v.965c2 0 6-.591 6 .995h2V7.987c0-.654 1.062-1.929 6-1.991v5.942h1V5c-2.438 0-8 .498-8 2.987Zm-1 6.969v.466c-1.469-.871-4.188-.933-6-.964V5.996c.5.031.938.031 1.375.062.063 0 .156.031.25.031h.094c1.969.124 4.031.56 4.25 1.711a.55.55 0 0 1 .031.187v6.969Zm3.219 2.115-.157.965-.124.964.968-.124 1-.156-.844-.84-.843-.809Zm4.75-1.4-.281-.28-2.532 2.489-.25-.28 2.5-2.489-.562-.56-2.5 2.489-.282-.28 2.5-2.489-.281-.28L14.5 16.76l1.656 1.68 2.813-2.769Zm-.25-2.489a.433.433 0 0 0-.563-.031v.062l-.031-.031-.531.56 1.687 1.649.531-.529c0-.031.032-.031.032-.031a.394.394 0 0 0 0-.56l-1.125-1.089Z"/></svg>
